X: 52
T: No_57_Song_in_Honor_of_Eagle_Nest.krn
N: Derived from No_57_Song_in_Honor_of_Eagle_Nest.krn
%%abc-version 2.0
%%abcx-abcm2ps-target-version 5.9.1 (29 Sep 2008)
%%abc-creator hum2abc beta
%%abcx-conversion-date 2019/03/15 08:27:55
%%humdrum-veritas 2612845399
%%humdrum-veritas-data 1620335722
%%linebreak <none>
%%barnumbers 0
L: 1/8
M: 6/8
K: A clef=treble
[K:clef=treble][M:6/8]BBB BBB/B/ | 
AAA A-(A/F/) z | 
AAA BAF/F/ | 
E4z2 | 
AF-F2AA | 
[M:5/8]BAFz2 | 
[M:6/8]FFF AFF/F/ | 
E3-E-E/C/ z | 
[M:5/8]EEEFE | 
D2-D/A,/A, z | 
[M:6/8]B,B,B, DB,B,/B,/ | 
A,3-A,-A,/F,/ z | 
A,A,A, B,A,F,/F,/ | 
[M:9/8]E,3z4z A | 
[M:6/8]F2FA3 | 
BAFz2E | 
F2F AFF/F/ | 
E3-(E/C/) z C | 
[M:5/8]E2EFE | 
D3-(D/A,/) z | 
[M:6/8]B,B,B, DB,B,/B,/ | 
[M:5/8]A,3-(A,/F,/) z | 
[M:6/8]A,A,A, B,A,F,/F,/ | 
E,4z2 |]  



